X:1
T: Mr. Peter MacGrigor
C:Alexander Walker
R:Strathspey
Q: 128
K:F
M:4/4
L:1/16
|:d2|cF3 A3F D3F C3F|B,3D A,3F GG,3 G,3d|cF3 A3F D3F C3F|B3G ABcB AF3 F3d|
cF3 A3F D3F C3F|B,3D A,3F GG,3 G,3A|AF3 A3c BcdB c3B|AF3 G3E F4 F2g2|
a3f f3c df3 c3A|B3d A3c dG3 G3f|a3f f3c df3 c3B|AF3 G3E F4 F3f|
a3f f3c df3 c3A|((3B2d2B2) ((3A2c2A2) G3g g3b|af3 ge3 fc3 dB3|AF3 G3E F4 F2:|
